dist/svg/upload.svg

<!-- Generated by Trend Micro Style Portal -->
<svg version="1.1" xmlns="http://www.w3.org/2000/svg" width="16" height="16" viewBox="0 0 16 16">
  <title>upload</title>
  <path fill="rgb(34,34,34)" d="M15 10v4c0 0.5-0.5 1-1 1h-12c-0.5 0-1-0.5-1-1v-4h1v4h12v-4h1zM6 11h4v-5h3l-5-5-5 5h3v5z"></path>
</svg>

<svg width="16" height="16" viewBox="0 0 16 16" fill="rgb(34, 34, 34)" xmlns="http://www.w3.org/2000/svg"><title>upload</title><path d="M15 10V14C15 14.5 14.5 15 14 15H2C1.5 15 1 14.5 1 14V10H2V14H14V10H15ZM6 11H10V6H13L8 1L3 6H6V11Z" fill="rgb(34, 34, 34)" fill-opacity="1.00"/></svg>
